icons/fill-new-time-timer.svg

<svg xmlns="http://www.w3.org/2000/svg" width="32px" height="32px" viewBox="0 0 32 32" version="1.1">
    <title>fill-new-time-timer</title>
    <g id="fill-new-time-timer" stroke-width="1" fill-rule="evenodd">
        <path d="M20,1.5 C20.5522847,1.5 21,1.94771525 21,2.5 C21,3.05228475 20.5522847,3.5 20,3.5 L17,3.5 L17.0004669,5.5411123 C23.1597751,6.04948543 28,11.2094952 28,17.5 C28,24.127417 22.627417,29.5 16,29.5 C9.372583,29.5 4,24.127417 4,17.5 C4,11.2091542 8.84074966,6.048926 15.0005348,5.54102967 L15,3.5 L12,3.5 C11.4477153,3.5 11,3.05228475 11,2.5 C11,1.94771525 11.4477153,1.5 12,1.5 L20,1.5 Z M16,10 C15.4477153,10 15,10.4477153 15,11 L14.9999275,16.2676063 C14.4021661,16.6134261 14,17.2597476 14,18 C14,19.1045695 14.8954305,20 16,20 C17.1045695,20 18,19.1045695 18,18 C18,17.2601625 17.5982846,16.6141507 17.0010775,16.2681881 L17,11 C17,10.4477153 16.5522847,10 16,10 Z" id="&#24418;&#29366;" />
    </g>
</svg>

<svg xmlns="http://www.w3.org/2000/svg" viewBox="0 0 32 32"><path fill="currentColor" d="M20 1.5a1 1 0 0 1 0 2h-3v2.041c6.16.508 11 5.668 11 11.959 0 6.627-5.373 12-12 12s-12-5.373-12-12C4 11.21 8.84 6.049 15 5.541V3.5h-3a1 1 0 0 1 0-2zM16 10a1 1 0 0 0-1 1v5.268a2 2 0 1 0 2.001 0L17 11a1 1 0 0 0-1-1"/></svg>
